!!!COM: Music21
!!!OTL: Soño da papuxa
!!!OMV: pezas_muineiras_sono-da-papuxa_sono-da-papuxa-partitura.musicxml
**kern
*I"Bagpipes
*I'Bag
*clefG^2
*k[b-]
*F:
*M6/8
=1
!LO:TX:a:t=Presto
*MM180
!LO:TX:a:t=[quarter]=180
2r
8r
8cc
=||
8ffL
8aa
8cccJ
8bb-L
8aa
8ggJ
=
8aaL
8ff
8ccJ
8ffL
8ee
8ddJ
=
8eeL
8cc
8ddJ
8eeL
8dd
8ccJ
=
12ddL
12ee
12dd
[8ccJ
8ccL]
8ff
8ggJ
=
8aaL
8gg
8aaJ
8ffL
8gg
8aaJ
=
8bb-L
8ccc
8bb-J
8ffL
8ee
8ddJ
!!linebreak:original
=
8eeL
8gg
8cccJ
8bb-L
8ff
8ggJ
=
4.aa
4ff
8cc
=||
8ffL
8aa
8cccJ
8bb-L
8aa
8ggJ
=
8aaL
8ff
8ccJ
8ffL
8ee
8ddJ
=
8eeL
8cc
8ddJ
8eeL
8dd
8ccJ
=
12ddL
12ee
12dd
[8ccJ
8ccL]
8ff
8ggJ
=
8aaL
8gg
8aaJ
8ffL
8gg
8aaJ
!!linebreak:original
=
4bb-
8dd
4.cc
=
8eeL
8gg
8cccJ
8bb-L
8dd
8eeJ
=
8ffL
8cc
8ddJ
8eeL
8ff
8ggJ
=||
8aaL
8cc
8aaJ
8aaL
8gg
8ffJ
=
8aaL
8cc
8ffJ
8aaL
8bb-
8cccJ
!!linebreak:original
=
8bb-L
8dd
8bb-J
8bb-L
8aa
8ggJ
=
4bb-
8cc
8ddL
8cc
8bb-J
=
8aaL
8cc
8aaJ
8aaL
8ccc
8bb-J
=
8ggL
8cc
8ggJ
8ggL
8bb-
8eeJ
=
12ggL
12aa
12gg
8ffJ
8ffL
8gg
8ddJ
=
8ccL
8cc
8ddJ
8eeL
8ff
8ggJ
=||
8aaL
8cc
8aaJ
8aaL
8gg
8ffJ
!!linebreak:original
=
8aaL
8cc
8ffJ
8aaL
8bb-
8cccJ
!!linebreak:original
=
8bb-L
8dd
8bb-J
8bb-L
8aa
8ggJ
=
4bb-
8ccc
8dddL
8ccc
8bb-J
!!linebreak:original
=
8aaL
8cc
8aaJ
8aaL
8ccc
8bb-J
=
8ggL
8cc
8ggJ
8ggL
8bb-
8aaJ
=
8ffL
8ddd
8cccJ
8bb-L
8aa
8ggJ
=
2ff
8ffL
8ggJ
=||
*k[b-e-a-d-]
*A-:
8aa-L
8bb-
8aa-J
4ff
8aa-
=
4gg
[8cc
8ccL]
8gg
8aa-J
=
8bb-L
8ccc
8bb-J
8ggL
8aa-
8bb-J
!!linebreak:original
=
8cccL
8aa-
[8ffJ
8ffL]
8ff
8ggJ
=
8aa-L
8gg
8ffJ
8ffL
8een
8ffJ
=
4gg
8cc
8ggL
8aa-
8bb-J
=
8eenL
8ddn
8ccJ
8ggL
8dd
8eeJ
=
2ff
8ffL
8ggJ
=||
8aa-L
8bb-
8aa-J
4ff
8aa-
=
4gg
[8cc
8ccL]
8gg
8aa-J
!!linebreak:original
=
8bb-L
8ccc
8bb-J
8ggL
8aa-
8bb-J
!!linebreak:original
=
8cccL
8aa-
[8ffJ
8ffL]
8ff
8ggJ
=
8aa-L
8gg
8ffJ
8ffL
8een
8ffJ
=
4gg
8cc
8ggL
8aan
8bb-J
=
8aanL
8ff
8ccJ
8bb-L
8aa
8ggJ
!!linebreak:original
=||
[4.ff
4ff]
8cc
=||
2.ff
==
*-
